X:1
T: The Four-Hand Reel
C:
R:Reel
Q: 232
K:G
M:4/4
L:1/8
((3DEF)|G2 BG dG BG|FA DA FA DA|G2 BG dG Bd|eg fa ge dB|
G2 BG dG BG|FD AD BD AD|G2 BG dG Bd|eg fa g2 g2|
gd Bd ed Bd|ga bg fd ef|gd Bd ed Bd|eg fa g2 g2|
ga bg ef ge|de dc BG Bd|ef ed ed Bd|eg fa ge dB|
gd Bd ed Bd|ga bg fd ef|gd Bd ed Bd|eg fa g2 g2|
ga bg ef ge|de dc BG Bd|ef ed ed Bd|eg fa ge dB|
G2 BG dG BG|FA DA FA DA|G2 BG dG Bd|eg fa ge dB|
G2 BG dG BG|FD AD BD AD|G2 BG dG Bd|eg fa g2||
